dhis-2/dhis-support/dhis-support-system/src/main/resources/SVGs/pregnant_outline.svg

<svg width="48" height="48" viewBox="0 0 48 48" fill="none" xmlns="http://www.w3.org/2000/svg">
<path fill-rule="evenodd" clip-rule="evenodd" d="M23.9996 4.05469C21.5777 4.05469 19.6147 6.01776 19.6147 8.43943C19.6147 10.8609 21.5777 12.8239 23.9996 12.8239C26.4216 12.8239 28.3866 10.8609 28.3866 8.43943C28.3866 6.01776 26.4216 4.05469 23.9996 4.05469ZM23.9996 4.74798C26.0386 4.74818 27.6926 6.40216 27.6926 8.44133C27.6926 10.4809 26.0386 12.1329 23.9996 12.1329C21.9597 12.1339 20.3047 10.4809 20.3047 8.44133C20.3047 6.40126 21.9597 4.74688 23.9996 4.74798ZM23.5636 13.9039L19.5717 13.9059V13.9179C18.8547 13.9329 18.1687 14.3279 17.8317 15.0199L12.9838 24.9487C12.5048 25.9317 12.9118 27.1077 13.8948 27.5877C14.8768 28.0677 16.0537 27.6647 16.5327 26.6817L19.5717 20.4528C19.6457 24.6947 17.1057 26.4657 16.7947 33.0616H19.5717V41.9725C19.5717 43.0655 20.4507 43.9465 21.5447 43.9465C22.6387 43.9465 23.5197 43.0655 23.5197 41.9725V33.0616H24.4706V41.9725C24.4706 43.0655 25.3516 43.9465 26.4446 43.9465C27.5386 43.9465 28.4196 43.0655 28.4196 41.9725V33.0616H31.2026C30.9266 26.4857 28.4196 25.1537 28.4196 20.4388L31.4666 26.6817C31.9455 27.6647 33.1235 28.0677 34.1065 27.5877C35.0895 27.1077 35.4925 25.9317 35.0135 24.9487L30.1676 15.0179C29.8286 14.3229 29.1406 13.9229 28.4196 13.9139V13.9059H24.4256L23.5636 13.9039ZM28.3476 14.6269L28.3496 14.6429C28.8196 14.6549 29.2686 14.9099 29.4916 15.3628L30.5286 17.4648C30.5416 17.4868 30.5606 17.4988 30.5716 17.5208L34.4035 25.2847C34.7245 25.9357 34.4605 26.7177 33.8105 27.0387C33.1595 27.3597 32.3775 27.0957 32.0565 26.4447L31.0156 24.3397C31.0036 24.3207 30.9846 24.3057 30.9746 24.2827L27.7536 17.7598C27.4046 25.8077 29.8596 24.9807 30.4606 32.3686H27.7536V33.2336V34.3066V36.9176V41.8925C27.7536 42.2545 27.6096 42.5825 27.3726 42.8195C27.1356 43.0555 26.8066 43.2005 26.4446 43.2005C26.0816 43.2005 25.7536 43.0565 25.5176 42.8195C25.2806 42.5835 25.1326 42.2545 25.1326 41.8925V36.9176V34.3066V33.2336V32.3686H22.8547V33.2336V34.3066V36.9176V41.8925C22.8547 42.6175 22.2687 43.2005 21.5427 43.2005C20.8167 43.2005 20.2337 42.6175 20.2337 41.8925V36.9176V34.3066V33.2336V32.3686L17.5677 32.3766C17.9877 25.8657 20.7927 24.5667 20.2337 17.7128L16.9917 24.2787C16.9807 24.3017 16.9627 24.3167 16.9507 24.3357L15.9097 26.4407C15.5887 27.0917 14.8068 27.3557 14.1558 27.0347C13.5058 26.7137 13.2408 25.9317 13.5618 25.2807L17.3947 17.5178C17.4047 17.4948 17.4247 17.4838 17.4377 17.4608L18.4747 15.3588C18.7157 14.8709 19.2167 14.5989 19.7267 14.6289L28.3476 14.6269ZM23.9996 22.3748C22.6752 22.3749 21.405 22.901 20.4685 23.8376C19.532 24.7741 19.0058 26.0443 19.0057 27.3687C19.0058 28.6931 19.532 29.9633 20.4685 30.8998C21.405 31.8363 22.6752 32.3625 23.9996 32.3626C25.3241 32.3625 26.5943 31.8363 27.5308 30.8998C28.4673 29.9633 28.9935 28.6931 28.9936 27.3687C28.9935 26.0443 28.4673 24.7741 27.5308 23.8376C26.5943 22.901 25.3241 22.3749 23.9996 22.3748ZM23.9996 23.0587C24.5656 23.0588 25.1259 23.1703 25.6488 23.3869C26.1716 23.6036 26.6466 23.9211 27.0468 24.3213C27.4469 24.7215 27.7643 25.1966 27.9808 25.7195C28.1973 26.2424 28.3087 26.8028 28.3086 27.3687C28.3085 28.5115 27.8545 29.6074 27.0464 30.4155C26.2384 31.2235 25.1424 31.6775 23.9996 31.6776C22.8569 31.6775 21.7609 31.2235 20.9529 30.4155C20.1448 29.6074 19.6908 28.5115 19.6907 27.3687C19.6906 26.8028 19.802 26.2424 20.0185 25.7195C20.235 25.1966 20.5524 24.7215 20.9525 24.3213C21.3526 23.9211 21.8277 23.6036 22.3505 23.3869C22.8733 23.1703 23.4337 23.0588 23.9996 23.0587ZM23.6816 23.3157C23.6016 23.2857 23.4977 23.3117 23.4567 23.4277V23.4297C23.3457 23.6747 23.1557 23.8477 23.0717 24.1947C22.9657 24.6967 23.8256 24.7387 24.0936 24.7377C24.8676 24.7647 25.1466 25.2487 24.3516 25.3197C23.6906 25.3817 23.0117 25.3987 22.8787 26.7577C22.8617 26.9567 22.9537 27.3087 23.1127 27.7577C23.1657 28.0517 23.0787 28.3907 22.9017 28.7577C22.8127 28.7457 22.7467 28.7147 22.7297 28.6407C22.7457 28.3237 22.8097 28.0557 22.6837 27.5977C22.5597 27.1527 22.2567 26.9407 21.9487 26.8867C21.3317 26.7587 20.7847 26.6427 20.2907 26.8067C19.7697 27.0017 19.9367 27.7737 20.3847 27.7827L20.9337 27.7987C21.3137 27.8057 21.5197 27.9727 21.3217 28.5077L21.0547 29.2847C20.8357 29.9537 21.5727 30.6847 22.5387 30.7697C23.5156 30.7467 24.0796 30.3097 24.8416 30.0717C25.5706 29.6687 25.4356 29.3817 25.4336 29.1247C25.3116 28.7687 25.2946 28.6397 25.0306 28.2357C24.9276 28.1267 24.8806 28.0967 24.7436 28.0057C24.4116 27.6377 24.9496 27.4047 25.3546 26.9237C25.5656 26.6247 25.2086 26.2747 24.7946 26.3957C24.4446 26.5107 24.2616 26.7227 23.9056 27.0917C23.7026 27.3147 23.4277 27.8377 23.8046 28.2787C23.9096 28.4817 23.7676 28.5777 23.4077 28.6927C23.2907 28.7237 23.2057 28.7267 23.1127 28.7397C23.2997 28.4287 23.3467 28.1107 23.3047 27.7887C23.2247 27.4497 23.0857 27.1267 23.0797 26.7697C23.1947 25.4007 24.0156 25.5897 24.6656 25.4837C24.9746 25.4727 25.6366 24.7397 24.2166 24.4817C23.7706 24.4027 23.3307 24.4357 23.4057 24.1427C23.4697 23.8867 23.6436 23.7267 23.7556 23.5287C23.8166 23.4287 23.7606 23.3467 23.6816 23.3177V23.3157ZM26.7396 26.7767C26.4246 26.7767 26.1106 26.8977 25.8706 27.1387C25.3906 27.6187 25.3906 28.3987 25.8706 28.8787C26.3516 29.3587 27.1306 29.3577 27.6106 28.8767C28.0906 28.3957 28.0896 27.6167 27.6086 27.1367C27.3686 26.8967 27.0546 26.7767 26.7396 26.7767Z" fill="#333333"/>
</svg>

<?xml version="1.0" encoding="UTF-8" standalone="no"?>
<!-- Created with Inkscape (http://www.inkscape.org/) -->
<svg id="svg8" xmlns:rdf="http://www.w3.org/1999/02/22-rdf-syntax-ns#" xmlns="http://www.w3.org/2000/svg" xmlns:osb="http://www.openswatchbook.org/uri/2009/osb" height="48" width="48" version="1.1" xmlns:cc="http://creativecommons.org/ns#" viewBox="0 0 12.7 12.7" xmlns:dc="http://purl.org/dc/elements/1.1/">
 <title id="title4753">UIO-icon</title>
 <metadata id="metadata5">
  <rdf:RDF>
   <cc:Work rdf:about="">
    <dc:format>image/svg+xml</dc:format>
    <dc:type rdf:resource="http://purl.org/dc/dcmitype/StillImage"/>
    <dc:title>UIO-icon</dc:title>
    <dc:creator>
     <cc:Agent>
      <dc:title>Joaquín Urbano</dc:title>
     </cc:Agent>
    </dc:creator>
    <dc:rights>
     <cc:Agent>
      <dc:title>GPL</dc:title>
     </cc:Agent>
    </dc:rights>
   </cc:Work>
  </rdf:RDF>
 </metadata>
 <g id="layer1" transform="translate(0,-284.3)">
  <path id="path4800" d="m24 4.0547c-2.422 0-4.385 1.9631-4.385 4.3848 0 2.4215 1.963 4.3845 4.385 4.3845s4.387-1.963 4.387-4.3845c0-2.4217-1.965-4.3848-4.387-4.3848zm0 0.6933c2.039 0.0002 3.693 1.6542 3.693 3.6934 0 2.0396-1.654 3.6916-3.693 3.6916-2.04 0.001-3.695-1.652-3.695-3.6916 0-2.0401 1.655-3.6945 3.695-3.6934zm-0.436 9.156l-3.992 0.002v0.012c-0.717 0.015-1.403 0.41-1.74 1.102l-4.848 9.929c-0.479 0.983-0.072 2.159 0.911 2.639 0.982 0.48 2.159 0.077 2.638-0.906l3.039-6.229c0.074 4.242-2.466 6.013-2.777 12.609h2.777v8.911c0 1.093 0.879 1.974 1.973 1.974s1.975-0.881 1.975-1.974v-8.911h0.951v8.911c0 1.093 0.881 1.974 1.974 1.974 1.094 0 1.975-0.881 1.975-1.974v-8.911h2.783c-0.276-6.576-2.783-7.908-2.783-12.623l3.047 6.243c0.479 0.983 1.657 1.386 2.64 0.906s1.386-1.656 0.907-2.639l-4.846-9.931c-0.339-0.695-1.027-1.095-1.748-1.104v-0.008h-3.994l-0.862-0.002zm4.784 0.723l0.002 0.016c0.47 0.012 0.919 0.267 1.142 0.72l1.037 2.102c0.013 0.022 0.032 0.034 0.043 0.056l3.832 7.764c0.321 0.651 0.057 1.433-0.593 1.754-0.651 0.321-1.433 0.057-1.754-0.594l-1.041-2.105c-0.012-0.019-0.031-0.034-0.041-0.057l-3.221-6.523c-0.349 8.048 2.106 7.221 2.707 14.609h-2.707v0.865 1.073 2.611 4.975c0 0.362-0.144 0.69-0.381 0.927-0.237 0.236-0.566 0.381-0.928 0.381-0.363 0-0.691-0.144-0.927-0.381-0.237-0.236-0.385-0.565-0.385-0.927v-4.975-2.611-1.073-0.865h-2.278v0.865 1.073 2.611 4.975c0 0.725-0.586 1.308-1.312 1.308s-1.309-0.583-1.309-1.308v-4.975-2.611-1.073-0.865l-2.666 0.008c0.42-6.511 3.225-7.81 2.666-14.664l-3.242 6.566c-0.011 0.023-0.029 0.038-0.041 0.057l-1.041 2.105c-0.321 0.651-1.103 0.915-1.754 0.594-0.65-0.321-0.915-1.103-0.594-1.754l3.833-7.763c0.01-0.023 0.03-0.034 0.043-0.057l1.037-2.102c0.241-0.488 0.742-0.76 1.252-0.73l8.621-0.002zm-4.348 7.748a4.9944 4.9944 0 0 0 -4.994 4.994 4.9944 4.9944 0 0 0 4.994 4.994 4.9944 4.9944 0 0 0 4.994 -4.994 4.9944 4.9944 0 0 0 -4.994 -4.994zm0 0.684a4.3094 4.3094 0 0 1 4.309 4.31 4.3094 4.3094 0 0 1 -4.309 4.309 4.3094 4.3094 0 0 1 -4.309 -4.309 4.3094 4.3094 0 0 1 4.309 -4.31zm-0.318 0.257c-0.08-0.03-0.184-0.004-0.225 0.112v0.002c-0.111 0.245-0.301 0.418-0.385 0.765-0.106 0.502 0.754 0.544 1.022 0.543 0.774 0.027 1.053 0.511 0.258 0.582-0.661 0.062-1.34 0.079-1.473 1.438-0.017 0.199 0.075 0.551 0.234 1 0.053 0.294-0.034 0.633-0.211 1-0.089-0.012-0.155-0.043-0.172-0.117 0.016-0.317 0.08-0.585-0.046-1.043-0.124-0.445-0.427-0.657-0.735-0.711-0.617-0.128-1.164-0.244-1.658-0.08-0.521 0.195-0.354 0.967 0.094 0.976l0.549 0.016c0.38 0.007 0.586 0.174 0.388 0.709l-0.267 0.777c-0.219 0.669 0.518 1.4 1.484 1.485 0.977-0.023 1.541-0.46 2.303-0.698 0.729-0.403 0.594-0.69 0.592-0.947-0.122-0.356-0.139-0.485-0.403-0.889-0.103-0.109-0.15-0.139-0.287-0.23-0.332-0.368 0.206-0.601 0.611-1.082 0.211-0.299-0.146-0.649-0.56-0.528-0.35 0.115-0.533 0.327-0.889 0.696-0.203 0.223-0.478 0.746-0.101 1.187 0.105 0.203-0.037 0.299-0.397 0.414-0.117 0.031-0.202 0.034-0.295 0.047 0.187-0.311 0.234-0.629 0.192-0.951-0.08-0.339-0.219-0.662-0.225-1.019 0.115-1.369 0.936-1.18 1.586-1.286 0.309-0.011 0.971-0.744-0.449-1.002-0.446-0.079-0.886-0.046-0.811-0.339 0.064-0.256 0.238-0.416 0.35-0.614 0.061-0.1 0.005-0.182-0.074-0.211v-0.002zm3.058 3.461c-0.315 0-0.629 0.121-0.869 0.362-0.48 0.48-0.48 1.26 0 1.74 0.481 0.48 1.26 0.479 1.74-0.002s0.479-1.26-0.002-1.74c-0.24-0.24-0.554-0.36-0.869-0.36z" fill-rule="evenodd" transform="matrix(.26458 0 0 .26458 0 284.3)" fill="#333"/>
 </g>
</svg>
